Newaita-dark/.DP/32/teamviewer-indicator.svg

<svg xmlns="http://www.w3.org/2000/svg" xmlns:xlink="http://www.w3.org/1999/xlink" width="32px" height="32px" viewBox="0 0 32 32" version="1.1">
<g id="surface1">
<path style=" stroke:none;fill-rule:nonzero;fill:rgb(93.333334%,93.333334%,93.333334%);fill-opacity:1;" d="M 15.878906 4.21875 C 9.277344 4.21875 3.96875 9.527344 3.96875 16.128906 C 3.96875 22.722656 9.277344 28.035156 15.878906 28.035156 C 22.472656 28.035156 27.785156 22.722656 27.785156 16.128906 C 27.785156 9.527344 22.472656 4.21875 15.878906 4.21875 Z M 19.167969 11.488281 C 19.527344 11.488281 19.867188 11.632812 20.113281 11.886719 L 23.421875 15.195312 C 23.9375 15.710938 23.9375 16.542969 23.421875 17.058594 L 20.113281 20.363281 C 19.785156 20.707031 19.296875 20.839844 18.835938 20.71875 C 18.378906 20.597656 18.019531 20.238281 17.898438 19.78125 C 17.777344 19.324219 17.914062 18.832031 18.253906 18.503906 L 19.316406 17.4375 C 19.273438 17.441406 19.230469 17.441406 19.183594 17.441406 L 12.441406 17.441406 L 13.5 18.503906 C 13.839844 18.832031 13.976562 19.324219 13.855469 19.78125 C 13.734375 20.238281 13.375 20.597656 12.917969 20.71875 C 12.457031 20.839844 11.96875 20.707031 11.636719 20.363281 L 8.332031 17.058594 C 7.816406 16.542969 7.816406 15.710938 8.332031 15.195312 L 11.636719 11.886719 C 11.878906 11.644531 12.199219 11.5 12.542969 11.488281 C 13.085938 11.472656 13.582031 11.792969 13.792969 12.292969 C 14.007812 12.792969 13.890625 13.371094 13.5 13.75 L 12.441406 14.808594 L 19.183594 14.808594 C 19.230469 14.808594 19.273438 14.8125 19.320312 14.816406 L 18.253906 13.75 C 17.871094 13.378906 17.75 12.808594 17.949219 12.308594 C 18.152344 11.816406 18.636719 11.488281 19.167969 11.488281 Z M 20.511719 16.011719 C 20.519531 16.089844 20.519531 16.164062 20.515625 16.242188 L 20.628906 16.128906 Z M 20.511719 16.011719 "/>
</g>
</svg>

<svg xmlns="http://www.w3.org/2000/svg" width="32pt" height="32pt" viewBox="0 0 32 32"><path d="M15.875 4.219A11.883 11.883 0 0 0 3.969 16.125c0 6.598 5.312 11.91 11.906 11.91 6.598 0 11.91-5.312 11.91-11.91a11.884 11.884 0 0 0-11.91-11.906zm3.297 7.27c.355 0 .695.144.941.398l3.309 3.308a1.316 1.316 0 0 1 0 1.864l-3.309 3.308a1.31 1.31 0 0 1-1.277.352 1.316 1.316 0 0 1-.582-2.215l1.062-1.067c-.043.004-.086.008-.132.004H12.44l1.059 1.063a1.317 1.317 0 1 1-1.863 1.863L8.332 17.06a1.316 1.316 0 0 1 0-1.864l3.305-3.308a1.32 1.32 0 0 1 2.16.406c.21.5.094 1.078-.297 1.457l-1.059 1.059h6.743c.046 0 .09.004.136.007l-1.066-1.066a1.315 1.315 0 0 1 .918-2.262zm1.34 4.523c.008.074.008.152.004.23l.113-.117zm0 0" fill="#bdbdbd"/></svg>
